X:1
T:Linköping, 12.8.12.8 D
T:Linköping, 12.8.12.8 D
T:Adam Geibel, 1886
T:Public Domain Courtesy of the Cyber Hymnal™
C:Adam Geibel, 1886
Z:Public Domain
Z:Courtesy of the Cyber Hymnal™
%%score 1 ( 2 3 )
L:1/8
Q:1/4=115
M:3/4
K:Bb
V:1 treble 
V:2 bass 
V:3 bass 
V:1
 [DF]2 | [DF]3 [EG] [DF]2 | [DF] [B,D]3 [DF]2 | [FB]3 [Fc] [FB]2 | [GB] [EG]3 [EG]2 | %5
 [DF]3 [^C=E] [DF]2 | [Fd]2 [Ec]2 [DB]2 | [Fc]6- | [Fc]2 z2 [EF]2 | [DF]3 [EG] [DF]2 | %10
 [DF] [B,D]3 [DF]2 | [FB]3 [Fc] [FB]2 | [GB] [EG]3 [EG]2 | [DF]2 [DB]2 [Fd]2 | [Fd] [Fd]3 [Ec]2 | %15
 [DB]6- | [DB]4 [DB]2 | [Fc]3 [Fc] [Fc]2 | [Fc] [Fc]3 [Fc]2 | [Fd]3 [Fd] [Fd]2 | [Fd] [Fd]3 [Fd]2 | %21
 [=Ed]3 [Ec] [EB]2 | [=EG]2 [EA]2 [EB]2 | [Ec]6- | [Ec]2 z2 [EF]2 | [DF]3 [B,D] [CE]2 | %26
 [DF] [DF]3 [DB]2 | [_Ad]2 [Ac]2 [Ad]2 | [Ge] !fermata![Ge]3 [Ge]2 | [Fd]3 [Fc] [FB]2 | %30
 [EA] [EA]3 [Ec]2 | [DB]6- | [DB]4 |] %33
V:2
 [B,,B,]2 | [B,,B,]3 [B,,F,] [B,,F,]2 | [B,,B,] [B,,B,]3 [B,,B,]2 | [D,B,]3 [D,B,] [D,B,]2 | %4
 [E,B,] [E,B,]3 [E,B,]2 | [B,,B,]3 [B,,B,] [B,,B,]2 | [B,,B,]2 [B,,B,]2 [B,,B,]2 | [F,A,]6- | %8
 [F,A,]2 z2 [F,A,]2 | [B,,B,]3 [B,,F,] [B,,F,]2 | [B,,B,] [B,,B,]3 [B,,B,]2 | %11
 [D,B,]3 [D,B,] [D,B,]2 | [E,B,] [E,B,]3 [E,B,]2 | [F,B,]2 [F,B,]2 [F,B,]2 | %14
 [F,A,] [F,A,]3 [F,A,]2 | [B,,B,]6- | [B,,B,]4 [B,,B,]2 | [F,A,]3 [F,A,] [F,A,]2 | %18
 [F,A,] [F,A,]3 [F,A,]2 | [B,,B,]3 [B,,B,] [B,,B,]2 | [B,,B,] [B,,B,]3 B,2 | %21
 [G,B,]2 [G,B,]2 [G,B,]2 | [C,B,]2 [C,A,]2 [C,G,]2 | [F,A,]6- | [F,A,]2 z2 [F,A,]2 | %25
 [B,,B,]3 [B,,F,] [B,,F,]2 | [B,,B,] [B,,B,]3 [B,,B,]2 | [B,,B,]2 [B,,B,]2 [B,,B,]2 | %28
 [E,B,] [E,B,]3 [E,B,]2 | [F,B,]3 [F,E] [F,D]2 | [F,C] [F,C]3 [F,A,]2 | [B,,B,]6- | [B,,B,]4 |] %33
V:3
 x2 | x6 | x6 | x6 | x6 | x6 | x6 | x6 | x6 | x6 | x6 | x6 | x6 | x6 | x6 | x6 | x6 | x6 | x6 | %19
 x6 | x4 B,2 | x6 | x6 | x6 | x6 | x6 | x6 | x6 | x6 | x6 | x6 | x6 | x4 |] %33

